ERK
CUT[NE SIDEN SCHNOR GEIT UEMME DAT HUS]
REG[Europa, Mitteleuropa, Deutschland, Westfalen]
TRD[]
FKT[]
SIG[E1184]
KEY[E1184   08  G 2/4]
MEL[3  21-7-6  -5-5-5
    3  21-7-6  -5-5-50
    -712_  321-7  1_0 //]
BEM[]
MEL_SEM[-2 -2 -1 -2 -2 0 0 9 -2 -2 -1 -2 -2 0 0 4 1 2 2 -2 -2 -1 1]
MEL_RAW[3  21-7-6  -5-5-5
    3  21-7-6  -5-5-50
    -712  321-7  10]
NO_REP[321-7-6-5
    321-7-6-50
    -712321-710]
RTM[x  xxxx  xxx
    x  xxxx  xxxx
    xxx_  xxxx  x_x]
SCL_DEG[-5-6-7123]
SCL_SEM[2 2 1 2 2]

